;Generated by Cura LulzBot Edition GCodeWriter Version: master
;FLAVOR:Marlin
;TIME:342
;Filament used: 0.909445m
;Layer height: 0.9
;Generated with Cura_SteamEngine 3.6.3
M82 ;absolute extrusion mode
M221 S100
;This G-Code has been generated specifically for the LulzBot TAZ 5 with standard extruder
M75			 ; start GLCD timer
M140 S60    ; start bed heating up
G90                      ; absolute positioning
M107                     ; disable fans
M82                      ; set extruder to absolute mode
G28 X0 Y0                ; home X and Y
G28 Z0                   ; home Z
G1 Z15.0 F175 ; move extruder up
M117 Heating...                     ; progress indicator message on LCD
M109 R210  ; wait for extruder to reach printing temp
M190 S60    ; wait for bed to reach printing temp
G92 E0                   ; set extruder position to 0
G1 F200 E0               ; prime the nozzle with filament
G92 E0                   ; re-set extruder position to 0
G1 F175       ; set travel speed
M203 X192 Y208 Z3        ; set limits on travel speed
M117 TAZ 5 Printing...   ; progress indicator message on LCD

G92 E0
G1 F900 E-3
;LAYER_COUNT:17
;LAYER:0
M107
G0 F5040 X131.008 Y124.3 Z0.9
;TYPE:SKIRT
G1 F900 E0
G1 F720 X131.973 Y123.344 E0.22996
G1 X132.407 Y122.954 E0.32875
G1 X133.286 Y122.238 E0.52068
G1 X133.702 Y121.928 E0.60851
G1 X134.676 Y121.266 E0.80788
G1 X135.125 Y120.989 E0.8972
G1 X136.132 Y120.427 E1.09243
G1 X136.836 Y120.092 E1.22442
G1 X138.965 Y119.244 E1.61239
G1 X139.842 Y118.97 E1.76794
G1 X141.562 Y118.575 E2.0667
G1 X142.436 Y118.441 E2.2164
G1 X144.502 Y118.279 E2.56723
G1 X145.386 Y118.275 E2.71689
G1 X147.333 Y118.41 E3.0473
G1 X148.301 Y118.558 E3.21308
G1 X150.538 Y119.088 E3.60228
G1 X151.202 Y119.286 E3.71958
G1 X151.528 Y119.415 E3.77894
G1 X153.651 Y120.329 E4.17024
G1 X154.349 Y120.685 E4.30289
G1 X155.331 Y121.27 E4.49641
G1 X155.945 Y121.69 E4.62235
G1 X157.622 Y122.995 E4.98209
G1 X158.199 Y123.507 E5.11268
G1 X159.156 Y124.473 E5.34289
G1 X159.546 Y124.907 E5.44167
G1 X160.262 Y125.786 E5.6336
G1 X160.571 Y126.201 E5.72119
G1 X161.23 Y127.17 E5.91958
G1 X161.508 Y127.619 E6.00899
G1 X162.073 Y128.631 E6.20521
G1 X162.408 Y129.336 E6.33735
G1 X163.256 Y131.465 E6.72532
G1 X163.53 Y132.342 E6.88087
G1 X163.925 Y134.062 E7.17963
G1 X164.059 Y134.936 E7.32933
G1 X164.221 Y137.002 E7.68016
G1 X164.225 Y137.886 E7.82982
G1 X164.09 Y139.833 E8.16023
G1 X163.942 Y140.801 E8.32601
G1 X163.412 Y143.038 E8.71521
G1 X163.214 Y143.702 E8.83251
G1 X163.085 Y144.028 E8.89187
G1 X162.171 Y146.151 E9.28317
G1 X161.815 Y146.849 E9.41582
G1 X161.23 Y147.831 E9.60933
G1 X160.81 Y148.445 E9.73527
G1 X159.504 Y150.123 E10.09525
G1 X158.992 Y150.7 E10.22585
G1 X158.027 Y151.656 E10.45581
G1 X157.593 Y152.046 E10.55459
G1 X156.714 Y152.762 E10.74653
G1 X156.298 Y153.072 E10.83436
G1 X155.324 Y153.734 E11.03373
G1 X154.875 Y154.011 E11.12305
G1 X153.868 Y154.573 E11.31828
G1 X153.164 Y154.908 E11.45027
G1 X151.035 Y155.756 E11.83824
G1 X150.158 Y156.03 E11.99379
G1 X148.438 Y156.425 E12.29255
G1 X147.564 Y156.559 E12.44225
G1 X145.498 Y156.721 E12.79308
G1 X144.614 Y156.725 E12.94274
G1 X142.667 Y156.59 E13.27315
G1 X141.699 Y156.442 E13.43893
G1 X139.462 Y155.912 E13.82813
G1 X138.798 Y155.714 E13.94543
G1 X138.472 Y155.585 E14.00479
G1 X136.349 Y154.671 E14.39609
G1 X135.65 Y154.314 E14.52897
G1 X134.665 Y153.727 E14.72309
G1 X134.051 Y153.307 E14.84903
G1 X132.375 Y152.002 E15.20864
G1 X131.799 Y151.491 E15.339
G1 X130.843 Y150.526 E15.56896
G1 X130.454 Y150.094 E15.66738
G1 X129.736 Y149.213 E15.85978
G1 X129.422 Y148.79 E15.94897
G1 X128.762 Y147.817 E16.14801
G1 X128.488 Y147.373 E16.23634
G1 X127.927 Y146.368 E16.4312
G1 X127.592 Y145.664 E16.56319
G1 X126.744 Y143.535 E16.95115
G1 X126.47 Y142.658 E17.1067
G1 X126.075 Y140.938 E17.40547
G1 X125.941 Y140.064 E17.55516
G1 X125.779 Y137.998 E17.906
G1 X125.775 Y137.114 E18.05566
G1 X125.91 Y135.167 E18.38607
G1 X126.058 Y134.199 E18.55185
G1 X126.588 Y131.962 E18.94105
G1 X126.786 Y131.298 E19.05835
G1 X126.915 Y130.972 E19.1177
G1 X127.829 Y128.849 E19.50901
G1 X128.185 Y128.151 E19.64166
G1 X128.77 Y127.169 E19.83517
G1 X129.19 Y126.555 E19.96111
G1 X130.496 Y124.877 E20.32109
G1 X131.008 Y124.3 E20.45169
G0 F5040 X131.853 Y125.152
G1 F720 X132.818 Y124.196 E20.68165
G1 X133.165 Y123.884 E20.76065
G1 X134.044 Y123.168 E20.95258
G1 X134.377 Y122.92 E21.02287
G1 X135.351 Y122.258 E21.22225
G1 X135.71 Y122.037 E21.29362
G1 X136.717 Y121.475 E21.48885
G1 X137.28 Y121.207 E21.59441
G1 X139.409 Y120.359 E21.98238
G1 X140.111 Y120.14 E22.10687
G1 X141.831 Y119.745 E22.40564
G1 X142.53 Y119.638 E22.52536
G1 X144.596 Y119.476 E22.87619
G1 X145.303 Y119.472 E22.99589
G1 X147.25 Y119.607 E23.3263
G1 X148.025 Y119.725 E23.45901
G1 X150.262 Y120.255 E23.84821
G1 X151.053 Y120.517 E23.98928
G1 X153.176 Y121.431 E24.38058
G1 X153.735 Y121.716 E24.48681
G1 X154.717 Y122.301 E24.68032
G1 X155.208 Y122.637 E24.78104
G1 X156.885 Y123.942 E25.14079
G1 X157.347 Y124.352 E25.24536
G1 X158.304 Y125.318 E25.47556
G1 X158.616 Y125.665 E25.55456
G1 X159.332 Y126.544 E25.74649
G1 X159.579 Y126.876 E25.81655
G1 X160.238 Y127.845 E26.01494
G1 X160.46 Y128.204 E26.0864
G1 X161.025 Y129.216 E26.28261
G1 X161.293 Y129.78 E26.38833
G1 X162.141 Y131.909 E26.7763
G1 X162.36 Y132.611 E26.90079
G1 X162.755 Y134.331 E27.19956
G1 X162.862 Y135.03 E27.31927
G1 X163.024 Y137.096 E27.67011
G1 X163.028 Y137.803 E27.7898
G1 X162.893 Y139.75 E28.12021
G1 X162.775 Y140.525 E28.25293
G1 X162.245 Y142.762 E28.64213
G1 X161.983 Y143.553 E28.78319
G1 X161.069 Y145.676 E29.1745
G1 X160.784 Y146.235 E29.28073
G1 X160.199 Y147.217 E29.47424
G1 X159.863 Y147.708 E29.57496
G1 X158.557 Y149.386 E29.93494
G1 X158.147 Y149.848 E30.03951
G1 X157.182 Y150.804 E30.26948
G1 X156.835 Y151.116 E30.34848
G1 X155.956 Y151.832 E30.54041
G1 X155.623 Y152.08 E30.6107
G1 X154.649 Y152.742 E30.81007
G1 X154.29 Y152.963 E30.88144
G1 X153.283 Y153.525 E31.07668
G1 X152.72 Y153.793 E31.18224
G1 X150.591 Y154.641 E31.57021
G1 X149.889 Y154.86 E31.6947
G1 X148.169 Y155.255 E31.99347
G1 X147.47 Y155.362 E32.11318
G1 X145.404 Y155.524 E32.46402
G1 X144.697 Y155.528 E32.58371
G1 X142.75 Y155.393 E32.91412
G1 X141.975 Y155.275 E33.04684
G1 X139.738 Y154.745 E33.43603
G1 X138.947 Y154.483 E33.5771
G1 X136.824 Y153.569 E33.96841
G1 X136.265 Y153.283 E34.07471
G1 X135.28 Y152.696 E34.26883
G1 X134.788 Y152.36 E34.3697
G1 X133.112 Y151.055 E34.7293
G1 X132.651 Y150.646 E34.83364
G1 X131.695 Y149.681 E35.0636
G1 X131.384 Y149.335 E35.14236
G1 X130.666 Y148.454 E35.33477
G1 X130.415 Y148.117 E35.40591
G1 X129.755 Y147.144 E35.60495
G1 X129.536 Y146.789 E35.67557
G1 X128.975 Y145.784 E35.87042
G1 X128.707 Y145.22 E35.97614
G1 X127.859 Y143.091 E36.3641
G1 X127.64 Y142.389 E36.4886
G1 X127.245 Y140.669 E36.78737
G1 X127.138 Y139.97 E36.90708
G1 X126.976 Y137.904 E37.25792
G1 X126.972 Y137.197 E37.37761
G1 X127.107 Y135.25 E37.70802
G1 X127.225 Y134.475 E37.84074
G1 X127.755 Y132.238 E38.22993
G1 X128.017 Y131.447 E38.371
G1 X128.931 Y129.324 E38.76231
G1 X129.216 Y128.765 E38.86853
G1 X129.801 Y127.783 E39.06204
G1 X130.137 Y127.292 E39.16277
G1 X131.443 Y125.614 E39.52275
G1 X131.853 Y125.152 E39.62732
G0 F5040 X132.697 Y126.005
G1 F720 X133.662 Y125.049 E39.85728
G1 X133.922 Y124.815 E39.9165
G1 X134.801 Y124.099 E40.10843
G1 X135.051 Y123.913 E40.16119
G1 X136.025 Y123.251 E40.36056
G1 X136.295 Y123.084 E40.41431
G1 X137.302 Y122.522 E40.60954
G1 X137.724 Y122.322 E40.6886
G1 X139.853 Y121.474 E41.07657
G1 X140.379 Y121.309 E41.1699
G1 X142.099 Y120.914 E41.46866
G1 X142.624 Y120.834 E41.55857
G1 X144.69 Y120.672 E41.90941
G1 X145.22 Y120.67 E41.99913
G1 X147.167 Y120.805 E42.32954
G1 X147.748 Y120.893 E42.42902
G1 X149.985 Y121.423 E42.81822
G1 X150.579 Y121.619 E42.92412
G1 X152.702 Y122.533 E43.31542
G1 X153.12 Y122.747 E43.39492
G1 X154.102 Y123.332 E43.58843
G1 X154.471 Y123.584 E43.66408
G1 X156.148 Y124.889 E44.02382
G1 X156.494 Y125.196 E44.10213
G1 X157.451 Y126.162 E44.33234
G1 X157.685 Y126.422 E44.39156
G1 X158.401 Y127.301 E44.58349
G1 X158.587 Y127.551 E44.63624
G1 X159.246 Y128.52 E44.83463
G1 X159.412 Y128.789 E44.88814
G1 X159.977 Y129.801 E45.08436
G1 X160.178 Y130.224 E45.16365
G1 X161.026 Y132.353 E45.55161
G1 X161.191 Y132.879 E45.64494
G1 X161.586 Y134.599 E45.94371
G1 X161.666 Y135.124 E46.03362
G1 X161.828 Y137.19 E46.38445
G1 X161.83 Y137.72 E46.47418
G1 X161.695 Y139.667 E46.80459
G1 X161.607 Y140.248 E46.90407
G1 X161.077 Y142.485 E47.29327
G1 X160.881 Y143.079 E47.39916
G1 X159.967 Y145.202 E47.79047
G1 X159.753 Y145.62 E47.86997
G1 X159.168 Y146.602 E48.06348
G1 X158.916 Y146.971 E48.13913
G1 X157.61 Y148.649 E48.49911
G1 X157.303 Y148.995 E48.57742
G1 X156.338 Y149.951 E48.80738
G1 X156.078 Y150.185 E48.8666
G1 X155.199 Y150.901 E49.05853
G1 X154.949 Y151.087 E49.11128
G1 X153.975 Y151.749 E49.31066
G1 X153.705 Y151.916 E49.3644
G1 X152.698 Y152.478 E49.55964
G1 X152.276 Y152.678 E49.6387
G1 X150.147 Y153.526 E50.02667
G1 X149.621 Y153.691 E50.11999
G1 X147.901 Y154.086 E50.41876
G1 X147.376 Y154.166 E50.50867
G1 X145.31 Y154.328 E50.8595
G1 X144.78 Y154.33 E50.94923
G1 X142.833 Y154.195 E51.27964
G1 X142.252 Y154.107 E51.37912
G1 X140.015 Y153.577 E51.76832
G1 X139.421 Y153.381 E51.87421
G1 X137.298 Y152.467 E52.26552
G1 X136.879 Y152.253 E52.34517
G1 X135.894 Y151.666 E52.53929
G1 X135.525 Y151.413 E52.61503
G1 X133.849 Y150.108 E52.97464
G1 X133.504 Y149.802 E53.05271
G1 X132.548 Y148.837 E53.28268
G1 X132.314 Y148.577 E53.3419
G1 X131.596 Y147.696 E53.5343
G1 X131.408 Y147.443 E53.58767
G1 X130.748 Y146.47 E53.78671
G1 X130.584 Y146.204 E53.83961
G1 X130.023 Y145.199 E54.03447
G1 X129.822 Y144.776 E54.11375
G1 X128.974 Y142.647 E54.50172
G1 X128.809 Y142.121 E54.59505
G1 X128.414 Y140.401 E54.89382
G1 X128.334 Y139.876 E54.98372
G1 X128.172 Y137.81 E55.33456
G1 X128.17 Y137.28 E55.42429
G1 X128.305 Y135.333 E55.7547
G1 X128.393 Y134.752 E55.85418
G1 X128.923 Y132.515 E56.24338
G1 X129.119 Y131.921 E56.34927
G1 X130.033 Y129.798 E56.74058
G1 X130.247 Y129.38 E56.82008
G1 X130.832 Y128.398 E57.01359
G1 X131.084 Y128.029 E57.08924
G1 X132.39 Y126.351 E57.44921
G1 X132.697 Y126.005 E57.52752
G1 F900 E54.52752
;MESH:
G0 F5040 X138.043 Y125.45
G0 X139.701 Y127.372
G0 X145.493 Y126.161
G0 X145.497 Y126.062
;TYPE:WALL-INNER
G1 F900 E57.52752
G1 F720 X146.016 Y126.095 E57.61557
G1 X146.498 Y126.149 E57.69768
G1 X146.987 Y126.223 E57.7814
G1 X147.464 Y126.319 E57.86378
G1 X147.971 Y126.442 E57.9521
G1 X148.449 Y126.582 E58.03642
G1 X148.916 Y126.741 E58.11994
G1 X149.385 Y126.923 E58.20511
G1 X149.821 Y127.114 E58.28569
G1 X150.308 Y127.355 E58.37768
G1 X150.711 Y127.576 E58.45549
G1 X151.162 Y127.85 E58.54483
G1 X151.545 Y128.105 E58.62273
G1 X151.976 Y128.421 E58.7132
G1 X152.362 Y128.732 E58.79712
G1 X152.736 Y129.059 E58.88123
G1 X153.108 Y129.416 E58.96852
G1 X153.432 Y129.753 E59.04766
G1 X153.77 Y130.139 E59.13452
G1 X154.079 Y130.524 E59.21809
G1 X154.395 Y130.955 E59.30857
G1 X154.657 Y131.347 E59.38839
G1 X154.917 Y131.777 E59.47346
G1 X155.149 Y132.201 E59.55529
G1 X155.386 Y132.679 E59.64561
G1 X155.577 Y133.115 E59.72619
G1 X155.757 Y133.577 E59.81014
G1 X155.917 Y134.048 E59.89435
G1 X156.058 Y134.529 E59.97921
G1 X156.181 Y135.036 E60.06753
G1 X156.275 Y135.507 E60.14884
G1 X156.353 Y136.012 E60.23535
G1 X156.404 Y136.48 E60.31505
G1 X156.439 Y137.016 E60.40598
G1 X156.449 Y137.5 E60.48794
G1 X156.439 Y137.984 E60.56989
G1 X156.404 Y138.52 E60.66083
G1 X156.353 Y138.988 E60.74053
G1 X156.276 Y139.49 E60.82651
G1 X156.181 Y139.964 E60.90835
G1 X156.058 Y140.471 E60.99667
G1 X155.918 Y140.949 E61.081
G1 X155.769 Y141.389 E61.15964
G1 X155.573 Y141.893 E61.25119
G1 X155.377 Y142.339 E61.33366
G1 X155.151 Y142.798 E61.42028
G1 X154.922 Y143.215 E61.50082
G1 X154.657 Y143.653 E61.58749
G1 X154.395 Y144.045 E61.66731
G1 X154.079 Y144.476 E61.75779
G1 X153.77 Y144.861 E61.84136
G1 X153.435 Y145.243 E61.92738
G1 X153.108 Y145.584 E62.00736
G1 X152.736 Y145.941 E62.09465
G1 X152.362 Y146.268 E62.17875
G1 X151.965 Y146.587 E62.26497
G1 X151.555 Y146.888 E62.35108
G1 X151.167 Y147.147 E62.43006
G1 X150.711 Y147.424 E62.52038
G1 X150.289 Y147.656 E62.60191
G1 X149.832 Y147.882 E62.68822
G1 X149.394 Y148.073 E62.76911
G1 X148.916 Y148.259 E62.85595
G1 X148.449 Y148.418 E62.93947
G1 X147.971 Y148.558 E63.02379
G1 X147.464 Y148.681 E63.11211
G1 X146.987 Y148.777 E63.19448
G1 X146.498 Y148.851 E63.27821
G1 X146.016 Y148.905 E63.36032
G1 X145.497 Y148.938 E63.44836
G1 X145 Y148.949 E63.53252
G1 X144.503 Y148.938 E63.61668
G1 X143.984 Y148.905 E63.70473
G1 X143.502 Y148.851 E63.78684
G1 X143.013 Y148.777 E63.87056
G1 X142.536 Y148.681 E63.95294
G1 X142.029 Y148.558 E64.04126
G1 X141.551 Y148.418 E64.12558
G1 X141.084 Y148.259 E64.2091
G1 X140.606 Y148.073 E64.29593
G1 X140.168 Y147.882 E64.37683
G1 X139.711 Y147.656 E64.46314
G1 X139.289 Y147.424 E64.54467
G1 X138.833 Y147.147 E64.63499
G1 X138.445 Y146.888 E64.71397
G1 X138.035 Y146.587 E64.80008
G1 X137.638 Y146.268 E64.8863
G1 X137.264 Y145.941 E64.9704
G1 X136.892 Y145.584 E65.05769
G1 X136.565 Y145.243 E65.13767
G1 X136.23 Y144.861 E65.22369
G1 X135.921 Y144.476 E65.30726
G1 X135.605 Y144.045 E65.39774
G1 X135.343 Y143.653 E65.47756
G1 X135.078 Y143.215 E65.56423
G1 X134.849 Y142.798 E65.64477
G1 X134.623 Y142.339 E65.73138
G1 X134.427 Y141.893 E65.81386
G1 X134.231 Y141.389 E65.90541
G1 X134.082 Y140.949 E65.98405
G1 X133.942 Y140.471 E66.06838
G1 X133.819 Y139.964 E66.1567
G1 X133.724 Y139.49 E66.23854
G1 X133.647 Y138.988 E66.32452
G1 X133.596 Y138.52 E66.40422
G1 X133.561 Y137.984 E66.49515
G1 X133.551 Y137.5 E66.57711
G1 X133.561 Y137.016 E66.65907
G1 X133.596 Y136.48 E66.75
G1 X133.647 Y136.012 E66.8297
G1 X133.725 Y135.507 E66.91621
G1 X133.819 Y135.036 E66.99752
G1 X133.942 Y134.529 E67.08584
G1 X134.083 Y134.048 E67.1707
G1 X134.243 Y133.577 E67.25491
G1 X134.423 Y133.115 E67.33885
G1 X134.614 Y132.679 E67.41944
G1 X134.851 Y132.201 E67.50976
G1 X135.083 Y131.777 E67.59159
G1 X135.343 Y131.347 E67.67666
G1 X135.605 Y130.955 E67.75648
G1 X135.921 Y130.524 E67.84695
G1 X136.23 Y130.139 E67.93053
G1 X136.568 Y129.753 E68.01739
G1 X136.892 Y129.416 E68.09653
G1 X137.264 Y129.059 E68.18382
G1 X137.638 Y128.732 E68.26792
G1 X138.024 Y128.421 E68.35184
G1 X138.455 Y128.105 E68.44232
G1 X138.838 Y127.85 E68.52022
G1 X139.289 Y127.576 E68.60956
G1 X139.692 Y127.355 E68.68737
G1 X140.179 Y127.114 E68.77936
G1 X140.615 Y126.923 E68.85994
G1 X141.084 Y126.741 E68.94511
G1 X141.551 Y126.582 E69.02863
G1 X142.029 Y126.442 E69.11295
G1 X142.536 Y126.319 E69.20127
G1 X143.013 Y126.223 E69.28364
G1 X143.502 Y126.149 E69.36737
G1 X143.984 Y126.095 E69.44948
G1 X144.503 Y126.062 E69.53752
G1 X145 Y126.051 E69.62168
G1 X145.497 Y126.062 E69.70584
G0 F5040 X145.493 Y126.161
G0 X140.414 Y133.388
G0 X140.365 Y141.667
G0 X140.454 Y141.624
G1 F720 X141.498 Y142.435 E69.92965
G1 X141.932 Y142.716 E70.01718
G1 X142.386 Y142.958 E70.10428
G1 X142.862 Y143.162 E70.19195
G1 X143.351 Y143.323 E70.27911
G1 X143.831 Y143.437 E70.36263
G1 X144.126 Y143.488 E70.41331
G1 X144.603 Y143.537 E70.49449
G1 X144.895 Y143.55 E70.54398
G1 X145.393 Y143.539 E70.6283
G1 X145.906 Y143.484 E70.71565
G1 X146.416 Y143.385 E70.8036
G1 X146.911 Y143.241 E70.89088
G1 X147.392 Y143.059 E70.97794
G1 X147.858 Y142.833 E71.06562
G1 X148.3 Y142.573 E71.15244
G1 X148.707 Y142.283 E71.23704
G1 X149.55 Y141.592 E71.42158
G1 X149.55 Y133.381 E72.81166
G1 X148.508 Y132.569 E73.0353
G1 X148.075 Y132.289 E73.1226
G1 X147.62 Y132.045 E73.21
G1 X147.147 Y131.842 E73.29714
G1 X146.656 Y131.679 E73.38473
G1 X146.175 Y131.564 E73.46845
G1 X145.882 Y131.513 E73.5188
G1 X145.405 Y131.463 E73.6
G1 X145.109 Y131.45 E73.65016
G1 X144.614 Y131.461 E73.73398
G1 X144.102 Y131.515 E73.82114
G1 X143.592 Y131.614 E73.90909
G1 X143.096 Y131.756 E73.99644
G1 X142.617 Y131.938 E74.08318
G1 X142.15 Y132.161 E74.1708
G1 X141.704 Y132.424 E74.25845
G1 X141.299 Y132.713 E74.34268
G1 X140.45 Y133.405 E74.52811
