;Generated by Cura LulzBot Edition GCodeWriter Version: master
;FLAVOR:Marlin
;TIME:322
;Filament used: 0.711079m
;Layer height: 0.9
;Generated with Cura_SteamEngine 3.6.3
M82 ;absolute extrusion mode
M221 S100
;This G-Code has been generated specifically for the LulzBot TAZ 5 with standard extruder
M75			 ; start GLCD timer
M140 S60    ; start bed heating up
G90                      ; absolute positioning
M107                     ; disable fans
M82                      ; set extruder to absolute mode
G28 X0 Y0                ; home X and Y
G28 Z0                   ; home Z
G1 Z15.0 F175 ; move extruder up
M117 Heating...                     ; progress indicator message on LCD
M109 R210  ; wait for extruder to reach printing temp
M190 S60    ; wait for bed to reach printing temp
G92 E0                   ; set extruder position to 0
G1 F200 E0               ; prime the nozzle with filament
G92 E0                   ; re-set extruder position to 0
G1 F175       ; set travel speed
M203 X192 Y208 Z3        ; set limits on travel speed
M117 TAZ 5 Printing...   ; progress indicator message on LCD

G92 E0
G1 F900 E-3
;LAYER_COUNT:7
;LAYER:0
M107
G0 F5040 X50.683 Y56.394 Z0.9
;TYPE:SKIRT
G1 F900 E0
G1 F720 X51.144 Y55.981 E0.10478
G1 X51.654 Y55.63 E0.2096
G1 X52.205 Y55.347 E0.31446
G1 X52.788 Y55.138 E0.41931
G1 X53.394 Y55.006 E0.52431
G1 X54.113 Y54.952 E0.64638
G1 X101.095 Y54.953 E8.60019
G1 X101.713 Y54.993 E8.70504
G1 X102.321 Y55.112 E8.80992
G1 X102.908 Y55.309 E8.91475
G1 X103.465 Y55.579 E9.01954
G1 X103.983 Y55.919 E9.12444
G1 X104.453 Y56.323 E9.22936
G1 X104.867 Y56.784 E9.33426
G1 X105.217 Y57.294 E9.43897
G1 X105.5 Y57.845 E9.54384
G1 X105.709 Y58.429 E9.64885
G1 X105.841 Y59.034 E9.75368
G1 X105.895 Y59.753 E9.87575
G1 X105.895 Y97.734 E16.30574
G1 X105.855 Y98.352 E16.41058
G1 X105.736 Y98.96 E16.51547
G1 X105.539 Y99.547 E16.62029
G1 X105.269 Y100.104 E16.72508
G1 X104.929 Y100.622 E16.82998
G1 X104.525 Y101.092 E16.93491
G1 X104.064 Y101.505 E17.03969
G1 X103.554 Y101.856 E17.1445
G1 X103.003 Y102.139 E17.24937
G1 X102.42 Y102.348 E17.35422
G1 X101.814 Y102.48 E17.45922
G1 X101.095 Y102.534 E17.58128
G1 X54.113 Y102.534 E25.5351
G1 X53.495 Y102.494 E25.63994
G1 X52.887 Y102.375 E25.74483
G1 X52.3 Y102.178 E25.84965
G1 X51.743 Y101.908 E25.95444
G1 X51.225 Y101.568 E26.05934
G1 X50.755 Y101.164 E26.16426
G1 X50.342 Y100.703 E26.26905
G1 X49.991 Y100.193 E26.37386
G1 X49.708 Y99.642 E26.47873
G1 X49.499 Y99.059 E26.58358
G1 X49.367 Y98.453 E26.68858
G1 X49.313 Y97.734 E26.81064
G1 X49.313 Y59.752 E33.2408
G1 X49.353 Y59.134 E33.34565
G1 X49.472 Y58.526 E33.45053
G1 X49.669 Y57.939 E33.55536
G1 X49.939 Y57.382 E33.66015
G1 X50.279 Y56.864 E33.76505
G1 X50.683 Y56.394 E33.86997
G0 F5040 X51.468 Y57.31
G1 F720 X51.86 Y56.944 E33.96076
G1 X52.302 Y56.641 E34.05149
G1 X52.785 Y56.406 E34.14242
G1 X53.296 Y56.246 E34.23307
G1 X53.826 Y56.163 E34.32389
G1 X54.113 Y56.152 E34.37251
G1 X101.095 Y56.153 E42.32633
G1 X101.63 Y56.193 E42.41716
G1 X102.153 Y56.312 E42.50796
G1 X102.652 Y56.507 E42.59866
G1 X103.117 Y56.775 E42.68952
G1 X103.537 Y57.108 E42.78026
G1 X103.903 Y57.5 E42.87106
G1 X104.206 Y57.942 E42.96178
G1 X104.441 Y58.425 E43.05271
G1 X104.601 Y58.936 E43.14337
G1 X104.684 Y59.466 E43.23419
G1 X104.695 Y59.753 E43.28281
G1 X104.695 Y97.734 E49.7128
G1 X104.655 Y98.269 E49.80363
G1 X104.536 Y98.792 E49.89443
G1 X104.341 Y99.291 E49.98513
G1 X104.073 Y99.756 E50.07599
G1 X103.74 Y100.176 E50.16673
G1 X103.348 Y100.542 E50.25753
G1 X102.906 Y100.845 E50.34825
G1 X102.423 Y101.08 E50.43918
G1 X101.912 Y101.24 E50.52984
G1 X101.382 Y101.323 E50.62066
G1 X101.095 Y101.334 E50.66928
G1 X54.113 Y101.334 E58.6231
G1 X53.578 Y101.294 E58.71392
G1 X53.055 Y101.175 E58.80473
G1 X52.556 Y100.98 E58.89543
G1 X52.091 Y100.712 E58.98629
G1 X51.671 Y100.379 E59.07703
G1 X51.305 Y99.987 E59.16782
G1 X51.002 Y99.545 E59.25854
G1 X50.767 Y99.062 E59.34948
G1 X50.607 Y98.551 E59.44013
G1 X50.524 Y98.021 E59.53095
G1 X50.513 Y97.734 E59.57957
G1 X50.513 Y59.752 E66.00974
G1 X50.553 Y59.217 E66.10056
G1 X50.672 Y58.694 E66.19137
G1 X50.867 Y58.195 E66.28207
G1 X51.135 Y57.73 E66.37293
G1 X51.468 Y57.31 E66.46367
G1 F900 E63.46367
;MESH:
G0 F5040 X53.439 Y61.557
G0 X55.918 Y61.557
G0 X75.234 Y74.613
G0 X75.304 Y74.543
;TYPE:WALL-INNER
G1 F900 E66.46367
G1 F720 X99.304 Y74.543 E70.52675
G1 X99.304 Y95.943 E74.14966
G1 X55.904 Y95.943 E81.49706
G1 X55.904 Y61.543 E87.32081
G1 X75.304 Y61.543 E90.60514
G1 X75.304 Y74.543 E92.80597
G0 F5040 X75.234 Y74.613
G0 X75.276 Y61.73
G0 X76.504 Y61.658
G0 X76.504 Y61.743
;TYPE:WALL-OUTER
G1 F720 X76.504 Y73.343 E94.76979
G1 X99.104 Y73.343 E98.59586
G1 X99.104 Y61.743 E100.55968
G1 X76.504 Y61.743 E104.38575
G0 F5040 X76.504 Y62.343
G0 X76.504 Y61.658
G0 X75.276 Y61.73
G0 X75.276 Y74.571
G0 X99.234 Y95.873
G0 X100.504 Y97.143
G1 F720 X54.704 Y97.143 E112.13946
G1 X54.704 Y60.343 E118.36952
G1 X100.504 Y60.343 E126.12323
G1 X100.504 Y97.143 E132.35328
G0 F5040 X99.904 Y97.143
G0 X99.234 Y95.873
G0 X98.114 Y94.753
;TYPE:SKIN
G1 F720 X57.094 Y94.753 E139.29777
G1 X57.094 Y62.733 E144.71859
G1 X74.114 Y62.733 E147.59999
G1 X74.114 Y75.733 E149.80083
G1 X98.114 Y75.733 E153.86391
G1 X98.114 Y94.753 E157.0839
G0 F5040 X97.573 Y77.208
G1 F720 X96.637 Y76.272 E157.308
G0 F5040 X94.94 Y76.272
G1 F720 X97.573 Y78.906 E157.93851
G0 F5040 X97.573 Y80.603
G1 F720 X93.243 Y76.272 E158.97531
G0 F5040 X91.546 Y76.272
G1 F720 X97.573 Y82.3 E160.41841
G0 F5040 X97.573 Y83.997
G1 F720 X89.849 Y76.272 E162.26781
G0 F5040 X88.152 Y76.272
G1 F720 X97.573 Y85.694 E164.52349
G0 F5040 X97.573 Y87.391
G1 F720 X86.455 Y76.272 E167.18548
G0 F5040 X84.758 Y76.272
G1 F720 X97.573 Y89.088 E170.25376
G0 F5040 X97.573 Y90.785
G1 F720 X83.061 Y76.272 E173.72833
G0 F5040 X81.363 Y76.272
G1 F720 X97.573 Y92.482 E177.60932
G0 F5040 X97.573 Y94.179
G1 F720 X79.666 Y76.272 E181.8966
G0 F5040 X77.969 Y76.272
G1 F720 X95.909 Y94.212 E186.19178
G0 F5040 X94.212 Y94.212
G1 F720 X76.272 Y76.272 E190.48696
G0 F5040 X74.575 Y76.272
G1 F720 X92.515 Y94.212 E194.78214
G0 F5040 X90.818 Y94.212
G1 F720 X59.879 Y63.273 E202.18954
G0 F5040 X58.182 Y63.273
G1 F720 X89.121 Y94.212 E209.59693
G0 F5040 X87.424 Y94.212
G1 F720 X57.634 Y64.422 E216.72923
G0 F5040 X57.634 Y66.119
G1 F720 X85.727 Y94.212 E223.45524
G0 F5040 X84.03 Y94.212
G1 F720 X57.634 Y67.816 E229.77495
G0 F5040 X57.634 Y69.513
G1 F720 X82.333 Y94.212 E235.68837
G0 F5040 X80.636 Y94.212
G1 F720 X57.634 Y71.21 E241.19549
G0 F5040 X57.634 Y72.907
G1 F720 X78.939 Y94.212 E246.29632
G0 F5040 X77.242 Y94.212
G1 F720 X57.634 Y74.604 E250.99085
G0 F5040 X57.634 Y76.301
G1 F720 X75.545 Y94.212 E255.27909
G0 F5040 X73.848 Y94.212
G1 F720 X57.634 Y77.998 E259.16104
G0 F5040 X57.634 Y79.695
G1 F720 X72.151 Y94.212 E262.63669
G0 F5040 X70.453 Y94.212
G1 F720 X57.634 Y81.392 E265.70592
G0 F5040 X57.634 Y83.089
G1 F720 X68.756 Y94.212 E268.36886
G0 F5040 X67.059 Y94.212
G1 F720 X57.634 Y84.787 E270.62539
G0 F5040 X57.634 Y86.484
G1 F720 X65.362 Y94.212 E272.47562
G0 F5040 X63.665 Y94.212
G1 F720 X57.634 Y88.181 E273.91956
G0 F5040 X57.634 Y89.878
G1 F720 X61.968 Y94.212 E274.9572
G0 F5040 X60.271 Y94.212
G1 F720 X57.634 Y91.575 E275.58855
G0 F5040 X57.634 Y93.272
G1 F720 X58.574 Y94.212 E275.8136
G0 F5040 X73.573 Y75.27
G1 F720 X61.576 Y63.273 E278.68592
G0 F5040 X63.273 Y63.273
G1 F720 X73.573 Y73.573 E281.15194
G0 F5040 X73.573 Y71.876
G1 F720 X64.97 Y63.273 E283.21166
G0 F5040 X66.667 Y63.273
G1 F720 X73.573 Y70.179 E284.86509
G0 F5040 X73.573 Y68.482
G1 F720 X68.364 Y63.273 E286.11223
G0 F5040 X70.061 Y63.273
G1 F720 X73.573 Y66.785 E286.95307
G0 F5040 X73.573 Y65.088
G1 F720 X71.758 Y63.273 E287.38761
G1 X71.546 Y63.061
G0 F5040 X75.689 Y61.565
G0 X76.522 Y61.571
G0 X76.594 Y60.898
G0 X76.316 Y61.043
M104 S210
;TYPE:SKIN
G1 F720 X77.165 Y61.043 E287.42333
G1 X99.226 Y61.043 E288.35153
G1 X99.803 Y61.619 E288.38583
G1 X99.803 Y73.498 E288.88563
G0 F5040 X99.319 Y72.153
;MESH:NONMESH
G0 X99.117 Y74.571
G0 X75.234 Y74.613
G0 X75.304 Y74.543
;TIME_ELAPSED:165.772710
;LAYER:1
M140 S60
M106 S85
;MESH:
G0 F7770 X75.304 Y74.543 Z1.8
;TYPE:WALL-INNER
G1 F1110 X99.304 Y74.543 E292.94871
G1 X99.304 Y95.943 E296.57162
G1 X55.904 Y95.943 E303.91903
G1 X55.904 Y61.543 E309.74277
G1 X75.304 Y61.543 E313.0271
G1 X75.304 Y74.543 E315.22793
G0 F7770 X75.234 Y74.613
G0 X75.276 Y61.73
G0 X76.504 Y61.658
G0 X76.504 Y61.743
;TYPE:WALL-OUTER
G1 F1020 X76.504 Y73.343 E317.19175
G1 X99.104 Y73.343 E321.01782
G1 X99.104 Y61.743 E322.98164
G1 X76.504 Y61.743 E326.80771
G0 F7770 X76.504 Y62.343
G0 X76.504 Y61.658
G0 X75.276 Y61.73
G0 X75.276 Y74.571
G0 X99.234 Y95.873
G0 X100.504 Y97.143
G1 F1020 X54.704 Y97.143 E334.56142
G1 X54.704 Y60.343 E340.79148
G1 X100.504 Y60.343 E348.54519
G1 X100.504 Y97.143 E354.77525
G0 F7770 X99.904 Y97.143
G0 X99.234 Y95.873
G0 X98.114 Y94.753
;TYPE:SKIN
G1 F1020 X57.094 Y94.753 E361.71973
G1 X57.094 Y62.733 E367.14055
G1 X74.114 Y62.733 E370.02195
G1 X74.114 Y75.733 E372.22279
G1 X98.114 Y75.733 E376.28587
G1 X98.114 Y94.753 E379.50586
G0 F7770 X97.572 Y92.497
G1 F1020 X95.857 Y94.212 E379.91646
G0 F7770 X94.16 Y94.212
G1 F1020 X97.572 Y90.8 E380.73336
G0 F7770 X97.572 Y89.103
G1 F1020 X92.463 Y94.212 E381.95656
G0 F7770 X90.766 Y94.212
G1 F1020 X97.572 Y87.406 E383.58604
G0 F7770 X97.572 Y85.709
G1 F1020 X89.069 Y94.212 E385.62183
G0 F7770 X87.372 Y94.212
G1 F1020 X97.572 Y84.012 E388.0639
G0 F7770 X97.572 Y82.315
G1 F1020 X85.675 Y94.212 E390.91227
G0 F7770 X83.978 Y94.212
G1 F1020 X97.572 Y80.617 E394.16706
G0 F7770 X97.572 Y78.92
G1 F1020 X82.281 Y94.212 E397.82814
G0 F7770 X80.584 Y94.212
G1 F1020 X97.572 Y77.223 E401.89552
G0 F7770 X96.827 Y76.272
G1 F1020 X78.886 Y94.212 E406.19082
G0 F7770 X77.189 Y94.212
G1 F1020 X95.13 Y76.272 E410.48612
G0 F7770 X93.433 Y76.272
G1 F1020 X75.492 Y94.212 E414.78142
G0 F7770 X73.795 Y94.212
G1 F1020 X91.736 Y76.272 E419.07672
G0 F7770 X90.039 Y76.272
G1 F1020 X72.098 Y94.212 E423.37202
G0 F7770 X70.401 Y94.212
G1 F1020 X88.342 Y76.272 E427.66733
G0 F7770 X86.645 Y76.272
G1 F1020 X68.704 Y94.212 E431.96263
G0 F7770 X67.007 Y94.212
G1 F1020 X84.948 Y76.272 E436.25793
G0 F7770 X83.251 Y76.272
G1 F1020 X65.31 Y94.212 E440.55323
G0 F7770 X63.613 Y94.212
G1 F1020 X81.554 Y76.272 E444.84853
G0 F7770 X79.857 Y76.272
G1 F1020 X61.916 Y94.212 E449.14384
G0 F7770 X60.219 Y94.212
G1 F1020 X78.16 Y76.272 E453.43914
G0 F7770 X76.462 Y76.272
G1 F1020 X58.522 Y94.212 E457.73432
G0 F7770 X57.634 Y93.403
G1 F1020 X74.765 Y76.272 E461.83581
G0 F7770 X73.573 Y75.767
G1 F1020 X57.634 Y91.706 E465.65192
G0 F7770 X57.634 Y90.009
G1 F1020 X73.573 Y74.07 E469.46802
G0 F7770 X73.573 Y72.373
G1 F1020 X57.634 Y88.312 E473.28412
G0 F7770 X57.634 Y86.615
G1 F1020 X73.573 Y70.676 E477.10023
G0 F7770 X73.573 Y68.979
G1 F1020 X57.634 Y84.918 E480.91633
G0 F7770 X57.634 Y83.221
G1 F1020 X73.573 Y67.282 E484.73244
G0 F7770 X73.573 Y65.585
G1 F1020 X57.634 Y81.524 E488.54854
G0 F7770 X57.634 Y79.827
G1 F1020 X73.573 Y63.888 E492.36465
G0 F7770 X72.491 Y63.272
G1 F1020 X57.634 Y78.13 E495.92182
G0 F7770 X57.634 Y76.433
G1 F1020 X70.794 Y63.272 E499.0727
G0 F7770 X69.097 Y63.272
G1 F1020 X57.634 Y74.736 E501.81728
G0 F7770 X57.634 Y73.039
G1 F1020 X67.4 Y63.272 E504.15557
G0 F7770 X65.703 Y63.272
G1 F1020 X57.634 Y71.342 E506.08756
G0 F7770 X57.634 Y69.645
G1 F1020 X64.006 Y63.272 E507.61326
G0 F7770 X62.309 Y63.272
G1 F1020 X57.634 Y67.948 E508.73267
G0 F7770 X57.634 Y66.25
G1 F1020 X60.612 Y63.272 E509.44566
G0 F7770 X58.915 Y63.272
G1 F1020 X57.634 Y64.553 E509.75235
G0 F7770 X75.965 Y61.566
G0 X76.522 Y61.571
G0 X76.594 Y61.188
G0 X76.418 Y61.043
;TYPE:SKIN
G1 F1020 X77.266 Y61.043 E509.78821
G1 X99.328 Y61.043 E510.72109
G1 X99.803 Y61.416 E510.74663
G1 X99.803 Y73.295 E511.24892
G0 F7770 X100.289 Y72.153
;MESH:NONMESH
G0 X99.121 Y73.069
G0 X99.117 Y74.571
G0 X75.276 Y74.571
G0 X58.104 Y63.743
;TIME_ELAPSED:250.892335
;LAYER:2
M106 S170
;MESH:
G0 F10500 X58.104 Y63.743 Z2.7
;TYPE:WALL-OUTER
G1 F1320 X58.104 Y93.743 E516.32777
G1 X97.104 Y93.743 E522.93028
G1 X97.104 Y74.143 E526.24846
G1 X76.504 Y74.143 E529.73594
G1 X75.704 Y74.143 E529.87138
G1 X75.704 Y73.343 E529.99358
G1 X75.704 Y63.743 E531.61881
G1 X58.104 Y63.743 E534.5984
G0 F10500 X58.104 Y64.343
G0 X58.004 Y64.343
G0 X58.076 Y63.715
G0 X75.732 Y63.715
G0 X76.434 Y73.413
G0 X76.504 Y73.343
G1 F1320 X97.104 Y73.343 E536.92339
G1 X97.904 Y73.343 E537.04559
G1 X97.904 Y74.143 E537.16779
G1 X97.904 Y93.743 E539.37991
G1 X97.904 Y94.543 E539.50212
G1 X97.104 Y94.543 E539.62432
G1 X58.104 Y94.543 E544.02599
G1 X57.304 Y94.543 E544.14819
G1 X57.304 Y93.743 E544.2704
G1 X57.304 Y63.743 E547.6563
G1 X57.304 Y62.943 E547.7785
G1 X58.104 Y62.943 E547.9007
G1 X75.704 Y62.943 E549.8871
G1 X76.504 Y62.943 E550.0093
G1 X76.504 Y63.743 E550.1315
G1 X76.504 Y73.343 E551.21499
G0 F10500 X77.104 Y73.343
;MESH:NONMESH
G0 X77.104 Y73.443
G0 X76.476 Y73.371
G0 X75.732 Y63.715
G0 X58.034 Y63.673
G0 X58.104 Y63.743
;TIME_ELAPSED:265.416770
;LAYER:3
M106 S255
;MESH:
G0 X58.104 Y63.743 Z3.6
;TYPE:WALL-OUTER
G1 F1320 X58.104 Y93.743 E556.29384
G1 X97.104 Y93.743 E562.89635
G1 X97.104 Y74.143 E566.21453
G1 X76.504 Y74.143 E569.702
G1 X75.704 Y74.143 E569.83744
G1 X75.704 Y73.343 E569.95964
G1 X75.704 Y63.743 E571.58488
G1 X58.104 Y63.743 E574.56447
G0 F10500 X58.104 Y64.343
G0 X58.004 Y64.343
G0 X58.076 Y63.715
G0 X75.732 Y63.715
G0 X76.434 Y73.413
G0 X76.504 Y73.343
G1 F1320 X97.104 Y73.343 E576.88945
G1 X97.904 Y73.343 E577.01166
G1 X97.904 Y74.143 E577.13386
G1 X97.904 Y93.743 E579.34598
G1 X97.904 Y94.543 E579.46818
G1 X97.104 Y94.543 E579.59039
G1 X58.104 Y94.543 E583.99206
G1 X57.304 Y94.543 E584.11426
G1 X57.304 Y93.743 E584.23646
G1 X57.304 Y63.743 E587.62236
G1 X57.304 Y62.943 E587.74456
G1 X58.104 Y62.943 E587.86677
G1 X75.704 Y62.943 E589.85316
G1 X76.504 Y62.943 E589.97536
G1 X76.504 Y63.743 E590.09757
G1 X76.504 Y73.343 E591.18106
G0 F10500 X77.104 Y73.343
;MESH:NONMESH
G0 X77.104 Y73.443
G0 X76.476 Y73.371
G0 X75.732 Y63.715
G0 X58.034 Y63.673
G0 X58.104 Y63.743
;TIME_ELAPSED:279.941206
;LAYER:4
;MESH:
G0 X58.104 Y63.743 Z4.5
;TYPE:WALL-OUTER
G1 F1320 X58.104 Y93.743 E596.25991
G1 X97.104 Y93.743 E602.86241
G1 X97.104 Y74.143 E606.18059
G1 X76.504 Y74.143 E609.66807
G1 X75.704 Y74.143 E609.80351
G1 X75.704 Y73.343 E609.92571
G1 X75.704 Y63.743 E611.55094
G1 X58.104 Y63.743 E614.53053
G0 F10500 X58.104 Y64.343
G0 X58.004 Y64.343
G0 X58.076 Y63.715
G0 X75.732 Y63.715
G0 X76.434 Y73.413
G0 X76.504 Y73.343
G1 F1320 X97.104 Y73.343 E616.85552
G1 X97.904 Y73.343 E616.97772
G1 X97.904 Y74.143 E617.09992
G1 X97.904 Y93.743 E619.31205
G1 X97.904 Y94.543 E619.43425
G1 X97.104 Y94.543 E619.55645
G1 X58.104 Y94.543 E623.95812
G1 X57.304 Y94.543 E624.08032
G1 X57.304 Y93.743 E624.20253
G1 X57.304 Y63.743 E627.58843
G1 X57.304 Y62.943 E627.71063
G1 X58.104 Y62.943 E627.83283
G1 X75.704 Y62.943 E629.81923
G1 X76.504 Y62.943 E629.94143
G1 X76.504 Y63.743 E630.06363
G1 X76.504 Y73.343 E631.14712
G0 F10500 X77.104 Y73.343
;MESH:NONMESH
G0 X77.104 Y73.443
G0 X76.476 Y73.371
G0 X75.732 Y63.715
G0 X58.034 Y63.673
G0 X58.104 Y63.743
;TIME_ELAPSED:294.465642
;LAYER:5
;MESH:
G0 X58.104 Y63.743 Z5.4
;TYPE:WALL-OUTER
G1 F1320 X58.104 Y93.743 E636.22597
G1 X97.104 Y93.743 E642.82848
G1 X97.104 Y74.143 E646.14666
G1 X76.504 Y74.143 E649.63414
G1 X75.704 Y74.143 E649.76957
G1 X75.704 Y73.343 E649.89178
G1 X75.704 Y63.743 E651.51701
G1 X58.104 Y63.743 E654.4966
G0 F10500 X58.104 Y64.343
G0 X58.004 Y64.343
G0 X58.076 Y63.715
G0 X75.732 Y63.715
G0 X76.434 Y73.413
G0 X76.504 Y73.343
G1 F1320 X97.104 Y73.343 E656.82158
G1 X97.904 Y73.343 E656.94379
G1 X97.904 Y74.143 E657.06599
G1 X97.904 Y93.743 E659.27811
G1 X97.904 Y94.543 E659.40031
G1 X97.104 Y94.543 E659.52252
G1 X58.104 Y94.543 E663.92419
G1 X57.304 Y94.543 E664.04639
G1 X57.304 Y93.743 E664.16859
G1 X57.304 Y63.743 E667.55449
G1 X57.304 Y62.943 E667.6767
G1 X58.104 Y62.943 E667.7989
G1 X75.704 Y62.943 E669.78529
G1 X76.504 Y62.943 E669.9075
G1 X76.504 Y63.743 E670.0297
