;Generated by Cura LulzBot Edition GCodeWriter Version: master
;FLAVOR:Marlin
;TIME:1877
;Filament used: 4.18092m
;Layer height: 0.9
;Generated with Cura_SteamEngine 3.6.3
M82 ;absolute extrusion mode
M221 S100
;This G-Code has been generated specifically for the LulzBot TAZ 5 with standard extruder
M75			 ; start GLCD timer
M140 S60    ; start bed heating up
G90                      ; absolute positioning
M107                     ; disable fans
M82                      ; set extruder to absolute mode
G28 X0 Y0                ; home X and Y
G28 Z0                   ; home Z
G1 Z15.0 F175 ; move extruder up
M117 Heating...                     ; progress indicator message on LCD
M109 R210  ; wait for extruder to reach printing temp
M190 S60    ; wait for bed to reach printing temp
G92 E0                   ; set extruder position to 0
G1 F200 E0               ; prime the nozzle with filament
G92 E0                   ; re-set extruder position to 0
G1 F175       ; set travel speed
M203 X192 Y208 Z3        ; set limits on travel speed
M117 TAZ 5 Printing...   ; progress indicator message on LCD

G92 E0
G1 F900 E-3
;LAYER_COUNT:33
;LAYER:0
M107
G0 F5040 X102.013 Y113.678 Z0.9
;TYPE:SKIRT
G1 F900 E0
G1 F720 X102.227 Y113.502 E0.04691
G1 X102.807 Y113.062 E0.17016
G1 X103.257 Y112.771 E0.26088
G1 X103.676 Y112.576 E0.33912
G1 X104.592 Y112.219 E0.50556
G1 X105.105 Y112.062 E0.59638
G1 X105.526 Y111.992 E0.66863
G1 X106.141 Y111.928 E0.77331
G1 X106.514 Y111.909 E0.83654
G1 X183.505 Y111.911 E13.87073
G1 X183.869 Y111.929 E13.93243
G1 X184.47 Y111.99 E14.0347
G1 X185.178 Y112.135 E14.15705
G1 X185.723 Y112.305 E14.2537
G1 X186.396 Y112.593 E14.37763
G1 X186.961 Y112.906 E14.48698
G1 X187.552 Y113.316 E14.60875
G1 X187.98 Y113.681 E14.70398
G1 X188.455 Y114.171 E14.81951
G1 X188.819 Y114.626 E14.91816
G1 X189.122 Y115.069 E15.00902
G1 X189.264 Y115.339 E15.06067
G1 X189.58 Y116.009 E15.18608
G1 X189.837 Y116.758 E15.32014
G1 X189.971 Y117.356 E15.42388
G1 X190.058 Y118.139 E15.55726
G1 X190.1 Y155.789 E21.93122
G1 X190.089 Y156.074 E21.9795
G1 X189.961 Y157.708 E22.25698
G1 X189.92 Y158.036 E22.31294
G1 X189.098 Y162.824 E23.13538
G1 X188.468 Y168.246 E24.05948
G1 X188.147 Y173.693 E24.98323
G1 X188.1 Y207.798 E30.75704
G1 X188.092 Y208.038 E30.79769
G1 X187.997 Y209.432 E31.03424
G1 X187.92 Y209.963 E31.12507
G1 X187.766 Y210.477 E31.21591
G1 X187.493 Y211.188 E31.34485
G1 X187.144 Y211.869 E31.4744
G1 X186.843 Y212.329 E31.56746
G1 X186.517 Y212.755 E31.65828
G1 X186.3 Y212.978 E31.71095
G1 X185.642 Y213.598 E31.86401
G1 X185.225 Y213.936 E31.95488
G1 X184.885 Y214.145 E32.02245
G1 X184.382 Y214.417 E32.11926
G1 X183.72 Y214.694 E32.24075
G1 X183.113 Y214.879 E32.34818
G1 X182.589 Y214.996 E32.43907
G1 X182.207 Y215.032 E32.50403
G1 X180.581 Y215.097 E32.77952
G1 X180.437 Y215.1 E32.80391
G1 X104.694 Y215.093 E45.62682
G1 X104.336 Y215.075 E45.6875
G1 X103.455 Y214.987 E45.83739
G1 X102.927 Y214.894 E45.92816
G1 X102.523 Y214.766 E45.9999
G1 X101.812 Y214.493 E46.12884
G1 X101.12 Y214.137 E46.26059
G1 X100.653 Y213.829 E46.35529
G1 X100.229 Y213.501 E46.44605
G1 X100.007 Y213.285 E46.49848
G1 X99.387 Y212.623 E46.65203
G1 X99.051 Y212.205 E46.74283
G1 X98.842 Y211.863 E46.81068
G1 X98.566 Y211.348 E46.9096
G1 X98.273 Y210.619 E47.04261
G1 X98.089 Y209.963 E47.15795
G1 X97.983 Y209.438 E47.24863
G1 X97.955 Y208.996 E47.32361
G1 X97.9 Y171.212 E53.72025
G1 X97.905 Y171.011 E53.75429
G1 X97.976 Y169.706 E53.97555
G1 X98.031 Y169.248 E54.05364
G1 X98.515 Y166.632 E54.50404
G1 X99.286 Y161.207 E55.43169
G1 X99.746 Y155.783 E56.35324
G1 X99.9 Y150.29 E57.28355
G1 X99.911 Y118.486 E62.6678
G1 X99.93 Y118.12 E62.72985
G1 X99.99 Y117.534 E62.82958
G1 X100.13 Y116.844 E62.94877
G1 X100.298 Y116.297 E63.04564
G1 X100.581 Y115.625 E63.16909
G1 X100.881 Y115.077 E63.27485
G1 X101.275 Y114.499 E63.39328
G1 X101.639 Y114.063 E63.48943
G1 X102.013 Y113.678 E63.5803
G1 F900 E60.5803
;MESH:
G0 F5040 X106.6 Y117.319
G0 X183.412 Y117.4
G0 X183.417 Y117.301
;TYPE:WALL-INNER
G1 F900 E63.5803
G1 F720 X183.738 Y117.334 E63.63493
G1 X183.962 Y117.403 E63.67461
G1 X184.166 Y117.513 E63.71385
G1 X184.346 Y117.664 E63.75362
G1 X184.496 Y117.849 E63.79394
G1 X184.595 Y118.033 E63.82932
G1 X184.665 Y118.26 E63.86953
G1 X184.7 Y118.599 E63.92723
G1 X184.7 Y156.405 E70.3276
G1 X184.666 Y156.739 E70.38443
G1 X184.597 Y156.962 E70.42395
G1 X184.487 Y157.166 E70.46319
G1 X184.336 Y157.346 E70.50296
G1 X184.151 Y157.496 E70.54329
G1 X183.967 Y157.595 E70.57866
G1 X183.74 Y157.665 E70.61887
G1 X183.401 Y157.7 E70.67657
G1 X106.583 Y157.699 E83.68147
G1 X106.262 Y157.666 E83.7361
G1 X106.038 Y157.597 E83.77578
G1 X105.834 Y157.487 E83.81502
G1 X105.654 Y157.336 E83.8548
G1 X105.504 Y157.151 E83.89512
G1 X105.405 Y156.967 E83.93049
G1 X105.335 Y156.74 E83.97071
G1 X105.3 Y156.401 E84.0284
G1 X105.301 Y118.583 E90.4308
G1 X105.334 Y118.262 E90.48543
G1 X105.403 Y118.038 E90.52511
G1 X105.513 Y117.834 E90.56435
G1 X105.664 Y117.654 E90.60413
G1 X105.849 Y117.504 E90.64445
G1 X106.033 Y117.405 E90.67982
G1 X106.26 Y117.335 E90.72003
G1 X106.599 Y117.3 E90.77773
G1 X183.417 Y117.301 E103.78263
G0 F5040 X183.481 Y116.101
;TYPE:WALL-OUTER
G1 F720 X183.978 Y116.152 E103.86722
G1 X184.429 Y116.291 E103.94711
G1 X184.842 Y116.515 E104.02665
G1 X185.204 Y116.816 E104.10636
G1 X185.5 Y117.181 E104.18591
G1 X185.708 Y117.57 E104.26059
G1 X185.847 Y118.021 E104.34049
G1 X185.9 Y118.533 E104.42763
G1 X185.9 Y156.468 E110.84984
G1 X185.848 Y156.978 E110.93663
G1 X185.709 Y157.429 E111.01652
G1 X185.485 Y157.842 E111.09606
G1 X185.184 Y158.204 E111.17577
G1 X184.819 Y158.5 E111.25532
G1 X184.43 Y158.708 E111.33
G1 X183.979 Y158.847 E111.4099
G1 X183.467 Y158.9 E111.49704
G1 X106.519 Y158.899 E124.52395
G1 X106.022 Y158.848 E124.60853
G1 X105.571 Y158.709 E124.68843
G1 X105.158 Y158.485 E124.76797
G1 X104.796 Y158.184 E124.84767
G1 X104.5 Y157.819 E124.92723
G1 X104.292 Y157.43 E125.00191
G1 X104.153 Y156.979 E125.08181
G1 X104.1 Y156.467 E125.16895
G1 X104.101 Y118.519 E131.59336
G1 X104.152 Y118.022 E131.67794
G1 X104.291 Y117.571 E131.75783
G1 X104.515 Y117.158 E131.83737
G1 X104.816 Y116.796 E131.91708
G1 X105.181 Y116.5 E131.99664
G1 X105.57 Y116.292 E132.07131
G1 X106.021 Y116.153 E132.15121
G1 X106.533 Y116.1 E132.23835
G1 X183.481 Y116.101 E145.26527
G0 F5040 X183.978 Y116.152
G0 X184.074 Y116.181
G0 X183.494 Y118.505
;TYPE:SKIN
G1 F720 X183.51 Y118.663 E145.29215
G1 X183.51 Y156.344 E151.67136
G1 X183.495 Y156.494 E151.69688
G1 X183.337 Y156.51 E151.72376
G1 X106.646 Y156.509 E164.70717
G1 X106.506 Y156.495 E164.73099
G1 X106.49 Y156.337 E164.75787
G1 X106.491 Y118.646 E171.13877
G1 X106.505 Y118.506 E171.16259
G1 X106.663 Y118.49 E171.18947
G1 X183.354 Y118.491 E184.17288
G1 X183.494 Y118.505 E184.1967
G0 F5040 X182.968 Y120.177
G1 F720 X181.821 Y119.03 E184.47131
G0 F5040 X180.124 Y119.03
G1 F720 X182.968 Y121.874 E185.15222
G0 F5040 X182.968 Y123.571
G1 F720 X178.427 Y119.03 E186.23942
G0 F5040 X176.73 Y119.03
G1 F720 X182.968 Y125.268 E187.73292
G0 F5040 X182.968 Y126.965
G1 F720 X175.033 Y119.03 E189.63271
G0 F5040 X173.336 Y119.03
G1 F720 X182.968 Y128.663 E191.93892
G0 F5040 X182.968 Y130.36
G1 F720 X171.639 Y119.03 E194.65142
G0 F5040 X169.942 Y119.03
G1 F720 X182.968 Y132.057 E197.77021
G0 F5040 X182.968 Y133.754
G1 F720 X168.245 Y119.03 E201.2953
G0 F5040 X166.548 Y119.03
G1 F720 X182.968 Y135.451 E205.22669
G0 F5040 X182.968 Y137.148
G1 F720 X164.851 Y119.03 E209.56437
G0 F5040 X163.154 Y119.03
G1 F720 X182.968 Y138.845 E214.30834
G0 F5040 X182.968 Y140.542
G1 F720 X161.457 Y119.03 E219.45861
G0 F5040 X159.76 Y119.03
G1 F720 X182.968 Y142.239 E225.01517
G0 F5040 X182.968 Y143.936
G1 F720 X158.063 Y119.03 E230.97803
G0 F5040 X156.366 Y119.03
G1 F720 X182.968 Y145.633 E237.34718
G0 F5040 X182.968 Y147.33
G1 F720 X154.669 Y119.03 E244.12263
G0 F5040 X152.971 Y119.03
G1 F720 X182.968 Y149.027 E251.30449
G0 F5040 X182.968 Y150.724
G1 F720 X151.274 Y119.03 E258.89264
G0 F5040 X149.577 Y119.03
G1 F720 X182.968 Y152.421 E266.88709
G0 F5040 X182.968 Y154.118
G1 F720 X147.88 Y119.03 E275.28784
G0 F5040 X146.183 Y119.03
G1 F720 X182.968 Y155.815 E284.09488
G0 F5040 X181.425 Y155.969
G1 F720 X144.485 Y119.03 E292.93891
G0 F5040 X142.788 Y119.03
G1 F720 X179.728 Y155.969 E301.78294
G0 F5040 X178.031 Y155.969
G1 F720 X141.091 Y119.03 E310.62696
G0 F5040 X139.394 Y119.03
G1 F720 X176.334 Y155.969 E319.47099
G0 F5040 X174.636 Y155.969
G1 F720 X137.697 Y119.03 E328.3149
G0 F5040 X136 Y119.03
G1 F720 X172.939 Y155.969 E337.15881
G0 F5040 X171.242 Y155.969
G1 F720 X134.303 Y119.03 E346.00272
G0 F5040 X132.606 Y119.03
G1 F720 X169.545 Y155.969 E354.84663
G0 F5040 X167.848 Y155.969
G1 F720 X130.909 Y119.03 E363.69054
G0 F5040 X129.212 Y119.03
G1 F720 X166.151 Y155.969 E372.53445
G0 F5040 X164.454 Y155.969
G1 F720 X127.515 Y119.03 E381.37836
G0 F5040 X125.818 Y119.03
G1 F720 X162.757 Y155.969 E390.22227
G0 F5040 X161.06 Y155.969
G1 F720 X124.121 Y119.03 E399.06618
G0 F5040 X122.424 Y119.03
G1 F720 X159.363 Y155.969 E407.91009
G0 F5040 X157.666 Y155.969
G1 F720 X120.727 Y119.03 E416.754
G0 F5040 X119.03 Y119.03
G1 F720 X155.969 Y155.969 E425.59791
G0 F5040 X154.272 Y155.969
G1 F720 X117.333 Y119.03 E434.44182
G0 F5040 X115.636 Y119.03
G1 F720 X152.575 Y155.969 E443.28573
G0 F5040 X150.878 Y155.969
G1 F720 X113.938 Y119.03 E452.12975
G0 F5040 X112.241 Y119.03
G1 F720 X149.181 Y155.969 E460.97378
G0 F5040 X147.484 Y155.969
G1 F720 X110.544 Y119.03 E469.81781
G0 F5040 X108.847 Y119.03
G1 F720 X145.787 Y155.969 E478.66184
G0 F5040 X144.089 Y155.968
G1 F720 X107.15 Y119.03 E487.50563
G0 F5040 X107.03 Y120.606
G1 F720 X142.392 Y155.968 E495.97198
G0 F5040 X140.695 Y155.968
G1 F720 X107.03 Y122.304 E504.03191
G0 F5040 X107.03 Y124.001
G1 F720 X138.998 Y155.968 E511.68554
G0 F5040 X137.301 Y155.968
G1 F720 X107.03 Y125.698 E518.93289
G0 F5040 X107.03 Y127.395
G1 F720 X135.603 Y155.968 E525.77381
G0 F5040 X133.906 Y155.968
G1 F720 X107.03 Y129.092 E532.20845
G0 F5040 X107.03 Y130.789
G1 F720 X132.209 Y155.968 E538.23679
G0 F5040 X130.512 Y155.968
G1 F720 X107.03 Y132.486 E543.85883
G0 F5040 X107.03 Y134.183
G1 F720 X128.815 Y155.968 E549.07458
G0 F5040 X127.118 Y155.968
G1 F720 X107.03 Y135.88 E553.88403
G0 F5040 X107.029 Y137.576
G1 F720 X125.421 Y155.968 E558.28743
G0 F5040 X123.724 Y155.968
G1 F720 X107.029 Y139.273 E562.28454
G0 F5040 X107.029 Y140.97
G1 F720 X122.027 Y155.968 E565.87535
G0 F5040 X120.33 Y155.968
G1 F720 X107.029 Y142.667 E569.05987
G0 F5040 X107.029 Y144.365
G1 F720 X118.633 Y155.968 E571.83797
G0 F5040 X116.936 Y155.968
G1 F720 X107.029 Y146.062 E574.20977
G0 F5040 X107.029 Y147.759
G1 F720 X115.239 Y155.968 E576.17529
G0 F5040 X113.542 Y155.968
G1 F720 X107.029 Y149.456 E577.73451
G0 F5040 X107.029 Y151.153
G1 F720 X111.845 Y155.968 E578.88743
G0 F5040 X110.148 Y155.968
G1 F720 X107.029 Y152.85 E579.63406
G0 F5040 X107.029 Y154.547
G1 F720 X108.451 Y155.968 E579.97439
G1 F900 E576.97439
G0 F5040 X106.584 Y157.68
G0 X106.584 Y160.165
G0 X106.584 Y166.835
G0 X106.584 Y169.32
G0 X106.022 Y169.63
G0 X106.092 Y169.7
;TYPE:WALL-INNER
G1 F900 E579.97439
G1 F720 X106.092 Y174.465 E580.78108
G1 X106.262 Y174.527 E580.81172
G1 X106.431 Y174.589 E580.84219
G1 X106.352 Y174.683 E580.84328
G1 X106.092 Y174.993 E580.88062
G1 X106.092 Y179.014 E581.56135
G1 X106.262 Y179.076 E581.59199
G1 X106.432 Y179.138 E581.62262
G1 X106.353 Y179.232 E581.62363
G1 X106.092 Y179.543 E581.66113
G1 X106.092 Y183.565 E582.34203
G1 X106.262 Y183.627 E582.37267
G1 X106.432 Y183.689 E582.4033
G1 X106.353 Y183.783 E582.40431
G1 X106.092 Y184.094 E582.44181
G1 X106.092 Y188.116 E583.12271
G1 X106.262 Y188.178 E583.15335
G1 X106.432 Y188.24 E583.18398
G1 X106.353 Y188.334 E583.18499
G1 X106.092 Y188.645 E583.22249
G1 X106.092 Y192.666 E583.90322
G1 X106.262 Y192.728 E583.93385
G1 X106.432 Y192.79 E583.96449
G1 X106.353 Y192.884 E583.9655
G1 X106.092 Y193.195 E584.00299
G1 X106.092 Y197.217 E584.6839
G1 X106.262 Y197.279 E584.71453
G1 X106.433 Y197.341 E584.74533
G1 X106.354 Y197.435 E584.74626
G1 X106.092 Y197.747 E584.78386
G1 X106.092 Y201.768 E585.4646
G1 X106.262 Y201.83 E585.49523
G1 X106.433 Y201.892 E585.52602
G1 X106.354 Y201.986 E585.52696
G1 X106.092 Y202.298 E585.56456
G1 X106.092 Y206.319 E586.24529
G1 X106.106 Y206.324 E586.24781
G1 X106.432 Y206.443 E586.30656
G1 X106.353 Y206.537
G1 X105.779 Y207.221 E586.40809
G1 X106.484 Y208.732 E586.69037
G1 X106.748 Y209.3 E586.7964
G1 X110.503 Y209.3 E587.43211
G1 X110.529 Y209.268 E587.43909
G1 X110.545 Y209.249 E587.44329
G1 X110.557 Y209.274
G1 X110.569 Y209.3 E587.44437
G1 X114.324 Y209.3 E588.08007
G1 X114.35 Y209.268 E588.08705
G1 X114.366 Y209.249 E588.09126
G1 X114.378 Y209.274
G1 X114.39 Y209.3 E588.09234
G1 X118.146 Y209.3 E588.72821
G1 X118.172 Y209.268 E588.73519
G1 X118.188 Y209.249 E588.7394
G1 X118.2 Y209.274
G1 X118.212 Y209.3 E588.74048
G1 X121.967 Y209.3 E589.37618
G1 X121.993 Y209.268 E589.38316
G1 X122.009 Y209.249 E589.38736
G1 X122.021 Y209.274
G1 X122.033 Y209.3 E589.38844
G1 X125.789 Y209.3 E590.02431
G1 X125.815 Y209.268 E590.03129
G1 X125.831 Y209.249 E590.0355
G1 X125.843 Y209.274
G1 X125.855 Y209.3 E590.03658
G1 X129.61 Y209.3 E590.67228
G1 X129.636 Y209.268 E590.67926
G1 X129.652 Y209.249 E590.68347
G1 X129.664 Y209.274
G1 X129.676 Y209.3 E590.68455
G1 X133.431 Y209.3 E591.32025
G1 X133.459 Y209.267 E591.32758
G1 X133.474 Y209.249 E591.33154
G1 X133.486 Y209.274
G1 X133.498 Y209.3 E591.3327
G1 X137.253 Y209.3 E591.96841
G1 X137.279 Y209.268 E591.97539
G1 X137.295 Y209.249 E591.97959
G1 X137.307 Y209.274
G1 X137.319 Y209.3 E591.98067
G1 X141.074 Y209.3 E592.61637
G1 X141.1 Y209.268 E592.62336
G1 X141.116 Y209.249 E592.62756
G1 X141.128 Y209.274
G1 X141.14 Y209.3 E592.62864
G1 X144.896 Y209.3 E593.26451
G1 X144.922 Y209.268 E593.27149
G1 X144.938 Y209.249 E593.2757
G1 X144.95 Y209.274
G1 X144.962 Y209.3 E593.27678
G1 X148.717 Y209.3 E593.91248
G1 X148.743 Y209.268 E593.91946
G1 X148.759 Y209.249 E593.92366
G1 X148.771 Y209.274
G1 X148.783 Y209.3 E593.92474
G1 X152.539 Y209.3 E594.56061
G1 X152.565 Y209.268 E594.56759
G1 X152.581 Y209.249 E594.5718
G1 X152.593 Y209.274
G1 X152.605 Y209.3 E594.57288
G1 X156.36 Y209.3 E595.20858
G1 X156.386 Y209.268 E595.21556
G1 X156.402 Y209.249 E595.21977
G1 X156.414 Y209.274
G1 X156.426 Y209.3 E595.22085
G1 X160.181 Y209.3 E595.85655
G1 X160.209 Y209.267 E595.86388
G1 X160.224 Y209.249 E595.86784
G1 X160.236 Y209.274
G1 X160.248 Y209.3 E595.86901
G1 X164.003 Y209.3 E596.50471
G1 X164.029 Y209.268 E596.51169
G1 X164.045 Y209.249 E596.51589
G1 X164.057 Y209.274
G1 X164.069 Y209.3 E596.51697
G1 X167.824 Y209.3 E597.15267
G1 X167.85 Y209.268 E597.15966
G1 X167.866 Y209.249 E597.16386
G1 X167.878 Y209.274
G1 X167.89 Y209.3 E597.16494
G1 X171.646 Y209.3 E597.80081
G1 X171.672 Y209.268 E597.80779
G1 X171.688 Y209.249 E597.812
G1 X171.7 Y209.274
G1 X171.712 Y209.3 E597.81308
G1 X175.467 Y209.3 E598.44878
G1 X175.493 Y209.268 E598.45576
G1 X175.509 Y209.249 E598.45996
G1 X175.521 Y209.274
G1 X175.533 Y209.3 E598.46104
G1 X179.909 Y209.3 E599.20188
G1 X179.909 Y204.54 E600.00772
G1 X179.739 Y204.478 E600.03836
G1 X179.569 Y204.416 E600.06899
G1 X179.648 Y204.322 E600.07
G1 X179.909 Y204.011 E600.1075
G1 X179.909 Y199.989 E600.7884
G1 X179.739 Y199.927 E600.81904
G1 X179.569 Y199.865 E600.84967
G1 X179.648 Y199.771 E600.85068
G1 X179.909 Y199.46 E600.88817
G1 X179.909 Y195.438 E601.56908
G1 X179.739 Y195.376 E601.59971
G1 X179.57 Y195.314 E601.63019
G1 X179.649 Y195.22 E601.63128
G1 X179.909 Y194.91 E601.66861
G1 X179.909 Y190.888 E602.34952
G1 X179.739 Y190.826 E602.38015
G1 X179.569 Y190.764 E602.41079
G1 X179.648 Y190.67 E602.4118
G1 X179.909 Y190.359 E602.44929
G1 X179.909 Y186.337 E603.1302
G1 X179.739 Y186.275 E603.16083
G1 X179.569 Y186.213 E603.19147
G1 X179.648 Y186.119 E603.19247
G1 X179.909 Y185.808 E603.22997
G1 X179.909 Y181.786 E603.91088
G1 X179.739 Y181.724 E603.94151
G1 X179.568 Y181.662 E603.9723
G1 X179.647 Y181.568 E603.97324
